icons-rebrand/svg/battery-charging-light.svg

<svg width="32" height="32" viewBox="0 0 32 32" fill="none" xmlns="http://www.w3.org/2000/svg">
<path d="M25 6.5H11C9.80693 6.50132 8.66311 6.97585 7.81948 7.81948C6.97585 8.66311 6.50132 9.80693 6.5 11V12.5H5C4.33712 12.5005 3.70154 12.7641 3.23282 13.2328C2.76409 13.7015 2.50053 14.3371 2.5 15V17C2.50053 17.6629 2.76409 18.2985 3.23282 18.7672C3.70154 19.2359 4.33712 19.4995 5 19.5H6.5V21C6.50132 22.1931 6.97585 23.3369 7.81948 24.1805C8.66311 25.0241 9.80693 25.4987 11 25.5H25C26.1931 25.4987 27.3369 25.0241 28.1805 24.1805C29.0241 23.3369 29.4987 22.1931 29.5 21V11C29.4987 9.80693 29.0241 8.66311 28.1805 7.81948C27.3369 6.97585 26.1931 6.50132 25 6.5ZM6.5 18.5H5C4.60234 18.4995 4.22111 18.3413 3.93992 18.0601C3.65873 17.7789 3.50053 17.3977 3.5 17V15C3.50053 14.6023 3.65873 14.2211 3.93992 13.9399C4.22111 13.6587 4.60234 13.5005 5 13.5H6.5V18.5ZM28.5 21C28.4987 21.9279 28.1295 22.8173 27.4734 23.4734C26.8173 24.1295 25.9279 24.4987 25 24.5H11C10.0721 24.4989 9.18244 24.1299 8.5263 23.4737C7.87015 22.8176 7.50106 21.9279 7.5 21V11C7.50106 10.0721 7.87015 9.18244 8.5263 8.5263C9.18244 7.87015 10.0721 7.50106 11 7.5H25C25.9279 7.50106 26.8176 7.87015 27.4737 8.5263C28.1299 9.18244 28.4989 10.0721 28.5 11V21Z" fill="#0F0F0F"/>
<path d="M25.185 13.5361C25.0619 13.4868 24.9243 13.4884 24.8024 13.5405C24.6805 13.5927 24.5843 13.6911 24.535 13.8141C23.645 16.0401 22.492 17.3431 21.289 17.4821C20.313 17.6041 19.297 16.9581 18.409 15.6891C17.317 14.1331 15.965 13.3701 14.619 13.5191C13.488 13.6511 11.86 14.5031 10.536 17.8141C10.5099 17.8753 10.4964 17.9411 10.4961 18.0077C10.4958 18.0742 10.5088 18.1401 10.5344 18.2016C10.5599 18.263 10.5974 18.3188 10.6448 18.3655C10.6921 18.4123 10.7483 18.4491 10.8101 18.4739C10.8718 18.4986 10.9379 18.5108 11.0044 18.5097C11.0709 18.5086 11.1366 18.4942 11.1975 18.4674C11.2584 18.4406 11.3133 18.4019 11.3591 18.3536C11.4048 18.3053 11.4405 18.2484 11.464 18.1861C12.355 15.9591 13.516 14.6541 14.735 14.5131C15.712 14.4011 16.719 15.0231 17.59 16.2631C18.7 17.8471 20.052 18.6401 21.404 18.4751C22.525 18.3451 24.139 17.4961 25.464 14.1851C25.5129 14.062 25.511 13.9246 25.4587 13.8029C25.4064 13.6812 25.3079 13.5853 25.185 13.5361Z" fill="#0F0F0F"/>
</svg>

<svg width="32" height="32" viewBox="0 0 32 32" fill="none" xmlns="http://www.w3.org/2000/svg"><path d="M25 6.5H11A4.505 4.505 0 0 0 6.5 11v1.5H5A2.502 2.502 0 0 0 2.5 15v2A2.502 2.502 0 0 0 5 19.5h1.5V21a4.505 4.505 0 0 0 4.5 4.5h14a4.505 4.505 0 0 0 4.5-4.5V11A4.505 4.505 0 0 0 25 6.5zm-18.5 12H5A1.502 1.502 0 0 1 3.5 17v-2A1.502 1.502 0 0 1 5 13.5h1.5v5zm22 2.5a3.505 3.505 0 0 1-3.5 3.5H11A3.504 3.504 0 0 1 7.5 21V11A3.504 3.504 0 0 1 11 7.5h14a3.504 3.504 0 0 1 3.5 3.5v10z" fill="#0F0F0F"/><path d="M25.185 13.536a.5.5 0 0 0-.65.278c-.89 2.226-2.043 3.529-3.246 3.668-.976.122-1.992-.524-2.88-1.793-1.092-1.556-2.444-2.319-3.79-2.17-1.131.132-2.759.984-4.083 4.295a.5.5 0 1 0 .928.372c.891-2.227 2.052-3.532 3.271-3.673.977-.112 1.984.51 2.855 1.75 1.11 1.584 2.462 2.377 3.814 2.212 1.121-.13 2.735-.979 4.06-4.29a.5.5 0 0 0-.279-.649z" fill="#0F0F0F"/></svg>
